!!!COM: Palestrina, Giovanni Perluigi da
!!!OPR: Illumina oculos meos
!!!OTL: Sanctus
**kern	**kern	**kern	**kern	**kern	**kern
*Ibass	*Ibarit	*Itenor	*Itenor	*Icalto	*Icant
!Bassus	!Baritone	!Tenor 2	!Tenor 1	!Altus	!Cantus
*clefF4	*clefF4	*clefGv2	*clefGv2	*clefG2	*clefG2
*k[]	*k[]	*k[]	*k[]	*k[]	*k[]
*E:phr	*E:phr	*E:phr	*E:phr	*E:phr	*E:phr
*M4/2	*M4/2	*M4/2	*M4/2	*M4/2	*M4/2
=1	=1	=1	=1	=1	=1
0r	0E	0r	0r	0e	0e
=2	=2	=2	=2	=2	=2
0r	1E	0r	0r	1e	1g
.	1F	.	.	1A	[1a
=3	=3	=3	=3	=3	=3
0E	1E	1r	0B	[0e	2a]
.	.	.	.	.	4g
.	.	.	.	.	4f
.	1r	1E	.	.	2.g
.	.	.	.	.	4a
=4	=4	=4	=4	=4	=4
1E	0r	1G	1B	1e_	4b
.	.	.	.	.	4cc
.	.	.	.	.	2b
1AA	.	[1A	1c	1e_	1a
=5	=5	=5	=5	=5	=5
0E	0r	2A]	0B	0e]	1b
.	.	4G#	.	.	.
.	.	4F#	.	.	.
.	.	1G#	.	.	1r
=6	=6	=6	=6	=6	=6
0r	0A	0r	2.c	1e	0a
.	.	.	4d	.	.
.	.	.	1e	2.c	.
.	.	.	.	4d	.
=7	=7	=7	=7	=7	=7
0r	1A	0r	1c	2e	1a
.	.	.	.	1f	.
.	1B-	.	2r	.	1d
.	.	.	[2d	4e	.
.	.	.	.	4d	.
=8	=8	=8	=8	=8	=8
0r	1A	0r	2d]	1e	1.a
.	.	.	2c	.	.
.	1F	.	2A	2.f	.
.	.	.	2c	.	2a
.	.	.	.	4e	.
=9	=9	=9	=9	=9	=9
0r	2G	0r	2B	2d	2g
.	2A	.	1A	2c	2f
.	1E	.	.	[1B	1e
.	.	.	4G#	.	.
.	.	.	4F#	.	.
=10	=10	=10	=10	=10	=10
0E	0r	1r	0G#	0B]	0e
.	.	1E	.	.	.
=11	=11	=11	=11	=11	=11
1E	0r	1G	1B	0e	0r
1AA	.	1A	1c	.	.
=12	=12	=12	=12	=12	=12
1.E	0r	2.G	1B	2.e	0r
.	.	4A	.	4d	.
.	.	4B	1G	4e	.
.	.	4c	.	4f	.
2E	.	[2B	.	2g	.
=13	=13	=13	=13	=13	=13
2D	0r	4B]	1A	2f	2r
.	.	4A	.	.	.
2C	.	1A	.	2e	2a
1BB	.	.	1D	1d	2b
.	.	2G#	.	.	[2dd
=14	=14	=14	=14	=14	=14
0AA	1r	1A	1E	1r	2dd]
.	.	.	.	.	4cc
.	.	.	.	.	4b
.	1A	1r	2r	1e	1cc
.	.	.	2A	.	.
=15	=15	=15	=15	=15	=15
0r	1A	1r	1c	1e	0a
.	1D	1A	1d	1f	.
=16	=16	=16	=16	=16	=16
0r	1.A	0c	0e	2e	2.a
.	.	.	.	4A	.
.	.	.	.	4B	4g
.	.	.	.	4c	4a
.	.	.	.	4d	4b
.	2A	.	.	4e	2cc
.	.	.	.	4f	.
=17	=17	=17	=17	=17	=17
0r	2G	1d	2r	2g	2b
.	2F	.	2A	2d	2a
.	1E	1e	2B	2r	1g
.	.	.	2G	[2g	.
=18	=18	=18	=18	=18	=18
0D	1.D	0A	1.d	2g]	0a
.	.	.	.	4f	.
.	.	.	.	4e	.
.	.	.	.	2f	.
.	2E	.	4c	2e	.
.	.	.	4B	.	.
=19	=19	=19	=19	=19	=19
1D	1F#	2r	1A	[0d	2.dd
.	.	2.d	.	.	.
.	.	.	.	.	4cc
1GG	[1G	.	[1B	.	4b
.	.	4c	.	.	4a
.	.	4B	.	.	2b
.	.	4A	.	.	.
=20	=20	=20	=20	=20	=20
1.G	1G]	2B	1B]	0d]	2g
.	.	2G	.	.	1b
.	1D	1A	2r	.	.
2F	.	.	[2d	.	[2a
=21	=21	=21	=21	=21	=21
1E	1G	2B	4d]	1r	4a]
.	.	.	4B	.	4g
.	.	4A	2c	.	1g
.	.	4G	.	.	.
1D	1r	1A	2d	2r	.
.	.	.	2A	[2d	2f#
=22	=22	=22	=22	=22	=22
1GG	1r	0G	2.B	4d]	0g
.	.	.	.	4c	.
.	.	.	.	4B	.
.	.	.	4c	4A	.
1r	[1G	.	4d	2.B	.
.	.	.	4e	.	.
.	.	.	[2d	.	.
.	.	.	.	4c	.
=23	=23	=23	=23	=23	=23
1GG	1G]	0r	2d]	2d	0r
.	.	.	2c	2e	.
1GG	1G	.	1B	1d	.
=24	=24	=24	=24	=24	=24
1AA	1F	0r	1A	1r	0r
[1C	[1E	.	1G	[1g	.
=25	=25	=25	=25	=25	=25
2C]	2E]	1G	0r	1g]	0r
2BB	2D	.	.	.	.
2C	1E	1G	.	1g	.
2E	.	.	.	.	.
=26	=26	=26	=26	=26	=26
1D	1F	1A	0r	1f	1r
1C	[1G	[1c	.	[1e	[1g
=27	=27	=27	=27	=27	=27
0r	1G]	2c]	0r	2e]	1g]
.	.	2B	.	2d	.
.	1C	2c	.	1e	1g
.	.	2e	.	.	.
=28	=28	=28	=28	=28	=28
0r	0r	1d	2r	1f	1a
.	.	.	2d	.	.
.	.	2.c	2e	2g	[1cc
.	.	.	2e	4c	.
.	.	4B	.	4d	.
=29	=29	=29	=29	=29	=29
0r	0r	2A	2c	4e	2cc]
.	.	.	.	4f	.
.	.	2G	2d	1g	2b
.	.	1A	2.c	.	[1cc
.	.	.	.	2f#	.
.	.	.	4d	.	.
=30	=30	=30	=30	=30	=30
0GG	1r	2.G	2e	[0g	2cc]
.	.	.	1d	.	4b
.	.	4F	.	.	4a
.	1G	1E	.	.	2b
.	.	.	[2c	.	2cc
=31	=31	=31	=31	=31	=31
1GG	1G	1D	2c]	1g]	1dd
.	.	.	2B	.	.
1AA	1F	2C	1c	1r	1r
.	.	[2c	.	.	.
=32	=32	=32	=32	=32	=32
1.C	1.E	4c]	1r	0r	0g
.	.	4d	.	.	.
.	.	2e	.	.	.
.	.	2c	1G	.	.
2BB	2D	2d	.	.	.
=33	=33	=33	=33	=33	=33
2C	1E	2c	1G	0r	1g
2E	.	2B	.	.	.
1D	1F	1d	1A	.	1f
=34	=34	=34	=34	=34	=34
1C	2G	1r	1.c	0g	1.e
.	4C	.	.	.	.
.	4D	.	.	.	.
1r	4E	1G	.	.	.
.	4F	.	.	.	.
.	2G	.	2B	.	2d
=35	=35	=35	=35	=35	=35
1C	2C	1G	2c	1g	2e
.	2E	.	2.c	.	2e
2.FF	2.F	1A	.	1f	2c
.	.	.	4B	.	.
.	.	.	[2A	.	[2cc
4GG	4E	.	.	.	.
=36	=36	=36	=36	=36	=36
4AA	4C	1.c	2A]	1.e	4cc]
4BB	4D	.	.	.	4b
4C	4E	.	2G	.	2.g
4D	4F	.	.	.	.
4E	1G	.	1r	.	.
4F	.	.	.	.	4a
2G	.	2B	.	2d	2b
=37	=37	=37	=37	=37	=37
2C	2r	2c	1r	0e	2g
2AA	1A	2c	.	.	2a
1E	.	1B	2r	.	1b
.	2G#	.	2B	.	.
=38	=38	=38	=38	=38	=38
1r	1A	2r	2c	0e	1a
.	.	1A	2A	.	.
2r	1E	.	1B	.	2r
2E	.	2G#	.	.	2b
=39	=39	=39	=39	=39	=39
2AA	2r	1A	[0e	1c	2cc
2AA	1A	.	.	.	2a
1E	.	2r	.	1B	1b
.	2G#	2B	.	.	.
=40	=40	=40	=40	=40	=40
2AA	1A	2c	1e]	2r	2a
1A	.	2A	.	2e	2.cc
.	1E	2B	2r	2e	.
.	.	.	.	.	4b
2G#	.	2E	2B	[2e	[2b
=41	=41	=41	=41	=41	=41
1A	1r	0e	2c	2e]	4b]
.	.	.	.	.	4a
.	.	.	2A	2c	1a
1E	2r	.	1B	2B	.
.	2E	.	.	2e	2g#
=42	=42	=42	=42	=42	=42
0r	2F	2r	1A	2c	[0a
.	2D	1d	.	2f	.
.	1A	.	2r	1e	.
.	.	2c#	[2A	.	.
=43	=43	=43	=43	=43	=43
2r	1D	1d	4A]	1.f	1a_
.	.	.	4G	.	.
1D	.	.	4F	.	.
.	.	.	4E	.	.
.	2r	2.A	2D	.	1a_
2C#	[2A	.	2E	2e	.
.	.	4G	.	.	.
=44	=44	=44	=44	=44	=44
0D	4A]	4F	2.F	1d	0a]
.	4G	4E	.	.	.
.	4F	1D	.	.	.
.	4E	.	4G	.	.
.	2F	.	1A	1d	.
.	2F	[2d	.	.	.
=45	=45	=45	=45	=45	=45
[0AA	[0E	2d]	[0A	[0e	[0a
.	.	4c#	.	.	.
.	.	4B	.	.	.
.	.	2.c#	.	.	.
.	.	4d	.	.	.
=46	=46	=46	=46	=46	=46
0AA]	0E]	0c#	0A]	0e]	0a]
*	*	*	*	*-	*-
!! Pleni
*Ibass	*Itenor	*Icalto	*Icalto
!Bassus	!Tenor	!Altus 2	!Altus 1
*clefF4	*clefGv2	*clefG2	*clefG2
*k[]	*k[]	*k[]	*k[]
*E:phr	*E:phr	*E:phr	*E:phr
*M4/2	*M4/2	*M4/2	*M4/2
=47	=47	=47	=47
0A	0r	0r	0r
=48	=48	=48	=48
1G	0r	0r	0r
1A	.	.	.
=49	=49	=49	=49
2.c	0r	0r	0e
4B	.	.	.
2A	.	.	.
2G	.	.	.
=50	=50	=50	=50
1F	0r	0r	1d
2E	.	.	1e
[2G	.	.	.
=51	=51	=51	=51
4G]	1r	0r	2.g
4F	.	.	.
4E	.	.	.
4D	.	.	4f
2C	[1A	.	2e
2D	.	.	2d
=52	=52	=52	=52
4AA	1A]	0r	1c
4BB	.	.	.
4C	.	.	.
4D	.	.	.
1E	1G	.	1B
=53	=53	=53	=53
0AA	1A	1r	1c
.	2.c	[1e	2.A
.	4B	.	4B
=54	=54	=54	=54
0r	2A	1e]	2c
.	2G	.	2B
.	1F	1d	1A
=55	=55	=55	=55
0r	2E	1e	2B
.	2.c	.	2.e
.	.	2.g	.
.	4B	.	4d
.	2G	.	2B
.	.	4f	.
=56	=56	=56	=56
0r	2A	2e	2c
.	2.B	2d	2d
.	.	1c	[1e
.	4A	.	.
.	[2A	.	.
=57	=57	=57	=57
0E	2A]	0B	0e]
.	4G#	.	.
.	4F#	.	.
.	1G#	.	.
=58	=58	=58	=58
1D	2r	1d	1f
.	1A	.	.
1E	.	2c	2.e
.	2G	2B	.
.	.	.	4d
=59	=59	=59	=59
2.F	2A	2.A	2c
.	4D	.	1f
4E	4E	4G	.
2D	4F	4A	.
.	4G	4B	.
2C	[2A	4c	[2e
.	.	4A	.
=60	=60	=60	=60
1BB	2A]	2.d	4e]
.	.	.	4d
.	2G#	.	1d
.	.	4e	.
[1AA	1A	2f	.
.	.	[2e	4c
.	.	.	4B
=61	=61	=61	=61
0AA]	1r	2e]	2c
.	.	4A	2.e
.	.	4B	.
.	2.A	4c	.
.	.	4d	4d
.	.	[2e	4c
.	4B	.	4B
=62	=62	=62	=62
0r	2c	2e]	2A
.	2G	2.d	2.B
.	1A	.	.
.	.	4c	4A
.	.	4c	[2A
.	.	8B	.
.	.	8A	.
=63	=63	=63	=63
1r	[0E	1B	2A]
.	.	.	2G#
2.AA	.	1A	2A
.	.	.	[2c
4BB	.	.	.
=64	=64	=64	=64
2C	0E]	1G	2c]
2GG	.	.	2B
1AA	.	1c	1A
=65	=65	=65	=65
2EE	2r	1B	1G
2E	2.B	.	.
2E	.	1e	1r
.	4G	.	.
2C	[2c	.	.
=66	=66	=66	=66
1F	2c]	2c	1A
.	4B	2d	.
.	4A	.	.
1E	2c	1e	2A
.	2B	.	2G
=67	=67	=67	=67
4AA	1A	1.e	1.c
4BB	.	.	.
4C	.	.	.
4D	.	.	.
4E	1G	.	.
4F	.	.	.
4G	.	2d	2B
4E	.	.	.
=68	=68	=68	=68
4F	1A	1c	4A
4G	.	.	4B
2.A	.	.	4c
.	.	.	4d
.	1E	1B	[1e
4G#	.	.	.
4G#	.	.	.
8F#	.	.	.
8G#	.	.	.
=69	=69	=69	=69
1A	2r	2r	1e]
.	2c	2e	.
2r	2c	2e	1r
2G	2B	2d	.
=70	=70	=70	=70
2G	1.e	1g	2r
2E	.	.	2g
1A	.	1c	2e
.	2c	.	2f
=71	=71	=71	=71
[0G	2d	0r	1.g
.	1e	.	.
.	4d	.	4f
.	4c	.	4e
=72	=72	=72	=72
0G]	2B	0r	2d
.	1c	.	2c
.	.	.	1d
.	2B	.	.
=73	=73	=73	=73
1C	2A	2r	2r
.	4G	2e	2c
.	4F	.	.
1r	2E	2e	2c
.	2F	2c	2A
=74	=74	=74	=74
1r	2D	1f	2d
.	2A	.	2c
1E	2A	[1e	1B
.	2G	.	.
=75	=75	=75	=75
2E	1.c	1e]	2r
2C	.	.	2e
1F	.	2r	2c
.	4B	2A	2d
.	4A	.	.
=76	=76	=76	=76
[0E	2c	2A	1.e
.	2B	2G	.
.	[1e	2c	.
.	.	4B	4d
.	.	4A	4c
=77	=77	=77	=77
0E]	0e]	2G	2B
.	.	1A	2A
.	.	.	1B
.	.	2G#	.
=78	=78	=78	=78
1AA	2r	2A	0e
.	2A	2c	.
1r	2A	2c	.
.	2G	2B	.
=79	=79	=79	=79
1AA	1.c	4A	2r
.	.	4B	.
.	.	4c	2A
.	.	4d	.
2AA	.	[1e	2A
2GG#	2B	.	2B
=80	=80	=80	=80
0AA	0A	0e]	0c
=81	=81	=81	=81
0E	0G#	0e	0B
*-	*-	*-	*-
!! Hosanna
**kern	**kern	**kern	**kern	**kern	**kern
*Ibass	*Ibarit	*Itenor	*Itenor	*Icalto	*Icant
!Bassus	!Baritone	!Tenor 2	!Tenor 1	!Altus	!Cantus
*clefF4	*clefF4	*clefGv2	*clefGv2	*clefG2	*clefG2
*k[]	*k[]	*k[]	*k[]	*k[]	*k[]
*E:phr	*E:phr	*E:phr	*E:phr	*E:phr	*E:phr
*M4/2	*M4/2	*M4/2	*M4/2	*M4/2	*M4/2
=82	=82	=82	=82	=82	=82
0r	0E	0r	0r	0B	1r
.	.	.	.	.	[1e
=83	=83	=83	=83	=83	=83
0r	1A	0A	0r	1c	1e]
.	1F	.	.	1d	1a
=84	=84	=84	=84	=84	=84
1r	0E	1B	1r	0e	2.g
.	.	.	.	.	4f
1AA	.	1c#	1E	.	4e
.	.	.	.	.	4d
.	.	.	.	.	2e
=85	=85	=85	=85	=85	=85
1D	1r	0d	1F#	1A	2d
.	.	.	.	.	2a
1BB	1D	.	1G#	1B	1dd
=86	=86	=86	=86	=86	=86
0AA	1E	1r	0A	1c	0cc
.	1F#	2r	.	1A	.
.	.	2A	.	.	.
=87	=87	=87	=87	=87	=87
0GG	0G	2B	1D	1r	0b
.	.	4G	.	.	.
.	.	4A	.	.	.
.	.	4B	1G	1d	.
.	.	4c	.	.	.
.	.	4d	.	.	.
.	.	4B	.	.	.
=88	=88	=88	=88	=88	=88
0r	1r	2.c	1C	1e	1g
.	.	4B	.	.	.
.	[1D	2A	1r	1f#	1a
.	.	[2d	.	.	.
=89	=89	=89	=89	=89	=89
1GG	1D]	4d]	0G	0g	1b
.	.	4c	.	.	.
.	.	4B	.	.	.
.	.	4A	.	.	.
1C	1E	4G	.	.	[1cc
.	.	4F	.	.	.
.	.	4E	.	.	.
.	.	4D	.	.	.
=90	=90	=90	=90	=90	=90
1AA	1F#	1C	1A	1r	1cc]
[1GG	1G	1D	2B	2r	1b
.	.	.	2G	[2d	.
=91	=91	=91	=91	=91	=91
0GG]	2r	1G	2.B	2d]	1.b
.	1G	.	.	2d	.
.	.	.	4c	.	.
.	.	2.B	1d	[1g	.
.	2G	.	.	.	2b
.	.	4c	.	.	.
=92	=92	=92	=92	=92	=92
1r	1G	1d	2B	1g]	1b
.	.	.	2G	.	.
2r	[1D	1d	2A	[1f	[1a
[2D	.	.	[2d	.	.
=93	=93	=93	=93	=93	=93
2D]	1D]	0A	2d]	2f]	0a]
2D	.	.	2d	4e	.
.	.	.	.	4d	.
1D	2r	.	1d	1f	.
.	[2A	.	.	.	.
=94	=94	=94	=94	=94	=94
1AA	2A]	2r	2.c	1e	2r
.	2A	2e	.	.	2a
.	.	.	4d	.	.
2r	1A	2c	2e	2r	2a
[2AA	.	2A	2c	[2e	[2cc
=95	=95	=95	=95	=95	=95
2AA]	[0E	2.c	1A	2e]	4cc]
.	.	.	.	.	4b
2AA	.	.	.	2e	4a
.	.	4B	.	.	4g
1AA	.	1A	1c	1e	1a
=96	=96	=96	=96	=96	=96
0EE	0E]	2.G#	1B	[0e	1b
.	.	4A	.	.	.
.	.	1B	2r	.	2r
.	.	.	2B	.	2g
=97	=97	=97	=97	=97	=97
1E	0r	0r	2B	0e]	2g
.	.	.	2G	.	2e
2E	.	.	2B	.	1g
2C	.	.	2c	.	.
=98	=98	=98	=98	=98	=98
2D	0r	2r	2A	0r	2f
2E	.	2c	2G	.	1e
1F	.	2c	1A	.	.
.	.	2A	.	.	2d
=99	=99	=99	=99	=99	=99
0E	1r	2c	2.G	2r	[0e
.	.	2B	.	2g	.
.	.	.	4A	.	.
.	1E	2.G	1B	2g	.
.	.	.	.	2e	.
.	.	4A	.	.	.
=100	=100	=100	=100	=100	=100
0r	2E	2B	1E	1g	1e]
.	2C	2c	.	.	.
.	2D	2A	2r	2f	1r
.	2E	2G	2c	[2e	.
=101	=101	=101	=101	=101	=101
1r	1F	1A	2c	2e]	1a
.	.	.	2A	2d	.
2r	1E	1r	1c	[1e	2g
2E	.	.	.	.	2e
=102	=102	=102	=102	=102	=102
2E	0r	2r	2B	1e]	2g
2C	.	2e	1A	.	2a
2D	.	2d	.	1r	2f
2E	.	[2c	2G	.	[2e
=103	=103	=103	=103	=103	=103
1F	0r	2c]	1A	1r	2e]
.	.	4B	.	.	2d
.	.	4A	.	.	.
[1E	.	2.G	1B	2r	[1e
.	.	.	.	2e	.
.	.	4A	.	.	.
=104	=104	=104	=104	=104	=104
1E]	2r	2B	0r	1g	0e]
.	2E	2c	.	.	.
2r	1G	[1B	.	2e	.
2E	.	.	.	[2g	.
=105	=105	=105	=105	=105	=105
1G	1E	0B]	0r	4g]	0r
.	.	.	.	4f	.
.	.	.	.	1e	.
2E	2.G	.	.	.	.
[2G	.	.	.	4d	.
.	4A	.	.	4c	.
=106	=106	=106	=106	=106	=106
4G]	2B	0r	0r	2d	1g
4F	.	.	.	.	.
4E	2.c	.	.	1e	.
4D	.	.	.	.	.
2C	.	.	.	.	2g
.	4B	.	.	.	.
2D	2A	.	.	4d	2f
.	.	.	.	4c	.
=107	=107	=107	=107	=107	=107
2E	2G	0r	1r	2B	2e
2F	1A	.	.	2A	2d
1E	.	.	2r	1B	1e
.	2G#	.	2B	.	.
=108	=108	=108	=108	=108	=108
0AA	0A	2r	1c	4A	1e
.	.	.	.	4B	.
.	.	2A	.	4c	.
.	.	.	.	4d	.
.	.	1c	2A	1e	2r
.	.	.	[2c	.	2a
=109	=109	=109	=109	=109	=109
0r	0r	2A	4c]	1e	1cc
.	.	.	4B	.	.
.	.	2.c	4A	.	.
.	.	.	4G	.	.
.	.	.	2.F	1f	2a
.	.	4B	.	.	.
.	.	[2A	.	.	[2cc
.	.	.	4G	.	.
=110	=110	=110	=110	=110	=110
0r	0r	4A]	4A	1c	4cc]
.	.	4G	4B	.	4b
.	.	1F	2c	.	1a
.	.	.	2d	1r	.
.	.	2G	2e	.	4g
.	.	.	.	.	4f
=111	=111	=111	=111	=111	=111
0r	0r	2A	2c	1r	2e
.	.	2B-	1d	.	2d
.	.	1A	.	2r	1e
.	.	.	2c#	2e	.
=112	=112	=112	=112	=112	=112
2r	1r	1D	0d	1f	4d
.	.	.	.	.	4e
2D	.	.	.	.	4f
.	.	.	.	.	4g
1F	1D	1r	.	2d	[1a
.	.	.	.	[2f	.
=113	=113	=113	=113	=113	=113
2D	1F	0r	2r	4f]	0a]
.	.	.	.	4e	.
2.F	.	.	2A	2c	.
.	2D	.	2A	2.d	.
4E	.	.	.	.	.
[2D	[2F	.	2A	.	.
.	.	.	.	4c	.
=114	=114	=114	=114	=114	=114
2D]	2F]	0r	2B	2B	1r
2C	2E	.	2c	1A	.
1BB	1D	.	1d	.	2r
.	.	.	.	2G#	2b
=115	=115	=115	=115	=115	=115
0AA	1E	2r	2.c	0A	1cc
.	.	2A	.	.	.
.	.	.	4d	.	.
.	2r	1c	1e	.	2a
.	[2A	.	.	.	[2cc
=116	=116	=116	=116	=116	=116
0r	4A]	2A	2r	0r	4cc]
.	4G	.	.	.	4b
.	2.F	2.c	2A	.	1a
.	.	.	1c	.	.
.	4E	4d	.	.	.
.	2C	2e	.	.	2g
=117	=117	=117	=117	=117	=117
0r	2D	2d	2A	0r	2f
.	2E	2G	2.c	.	1e
.	1F	1A	.	.	.
.	.	.	4B	.	.
.	.	.	[2A	.	2d
=118	=118	=118	=118	=118	=118
1r	[0E	1B	2A]	2r	0e
.	.	.	2G#	2B	.
1AA	.	4A	1A	1c	.
.	.	4B	.	.	.
.	.	4c	.	.	.
.	.	4d	.	.	.
=119	=119	=119	=119	=119	=119
1C	1E_	1e	2r	2G	2r
.	.	.	2G	2.c	2e
2AA	1E_	2r	2.c	.	2a
.	.	.	.	4d	.
[2C	.	2c	.	[2e	2g
.	.	.	8B	.	.
.	.	.	8A	.	.
=120	=120	=120	=120	=120	=120
4C]	0E]	2c	2G	2e]	1.cc
4BB	.	.	.	.	.
1AA	.	2c	2A	2e	.
.	.	2A	2E	[1e	.
2GG#	.	2B	2e	.	2b
=121	=121	=121	=121	=121	=121
0AA	[0E	4c	4e	0e]	0a
.	.	4B	4d	.	.
.	.	4A	4c	.	.
.	.	4G#	4B	.	.
.	.	1A	1c	.	.
=122	=122	=122	=122	=122	=122
0EE	0E]	0G#	0B	0e	0b
==	==	==	==	==	==
*-	*-	*-	*-	*-	*-
!!!CDT: 1525/^1526/-1594/2/2
!!!OCY: Italia
!!!AGN: Mass (Parody)
!!!AST: renaissance, vocal
!!!ASW: Motet (Silva)
!!!PWK: Masses, Book 10
!!!RNB: Cadence finals: G,C,A
!!!YOR: Le Opere Complete, v. 27, p. 155
!!!YOO: Rome, Italy: Fratelli Scalera
!!!END: 1992//
!!!EED: John Miller
!!!YEC: Copyright 2000, John Miller
!!!YEN: United States of America
!!!YEM: Rights to all derivative electronic formats reserved.
!!!YEM: Refer to licensing agreement for further details.
!!!YEM: This file must be accompanied by the licensing agreement.
!!!YEM: A copy of the licensing agreement may be found at http://www.music-cog.ohio-state.edu/HumdrumDatabases/Palestrina/license.txt
!!!EMD: converted to Humdrum by Bret Aarden
